frontend/public/svg/health/lungs.svg

<svg width="162" height="121" viewBox="0 0 162 121" fill="none" xmlns="http://www.w3.org/2000/svg">
<g clip-path="url(#clip0)">
<path d="M67.814 42.8602L76.754 37.045C77.2554 30.1207 77.8619 22.9837 78.2537 15.8342C78.4559 12.1587 78.3095 8.4642 78.2537 4.77887C78.2281 3.07239 78.9147 1.83394 80.5673 1.55631C83.87 0.941947 87.2055 0.519087 90.5568 0.290102C92.6781 0.183118 94.3905 2.47256 94.5729 5.33682C94.823 9.25515 94.9411 13.1859 94.9825 17.1134C95.0481 23.2771 94.9989 29.4421 94.9989 35.6353L100.704 38.4575C100.704 37.1199 100.735 36.2791 100.699 35.4417C100.38 29.1526 100.982 22.8505 102.488 16.736C103.418 12.9917 105.614 9.68453 108.706 7.37599C112.623 4.37328 116.343 4.16656 120.586 6.72497C125.497 9.74353 129.522 14.0072 132.253 19.0837C134.536 23.0789 136.598 27.1963 138.43 31.4176C145.406 47.9507 152.205 64.5575 157.186 81.8358C158.61 86.7774 160.23 91.6743 161.401 96.6756C162.97 103.381 160.059 108.113 153.446 110.035C151.414 110.686 149.311 111.095 147.182 111.254C136.863 111.708 126.521 112.258 116.279 110.329C107.809 108.734 102.331 104.028 100.939 95.1844C99.2145 84.2236 96.4711 73.3284 97.1615 62.1586C97.4241 57.9534 95.8574 56.0394 92.5258 54.4721C88.4664 52.5615 84.7154 52.2938 80.843 55.12C76.4193 58.3485 71.7481 61.2376 67.6047 63.9949C67.755 67.2697 68.0772 70.1438 67.9814 73.0041C67.711 81.0836 67.3395 89.1592 66.8656 97.2309C66.6549 101.953 65.552 106.593 63.615 110.905C61.7989 114.83 58.9958 117.505 54.7093 118.404C52.0787 118.955 49.4139 119.742 46.7675 119.738C38.3519 119.726 29.9325 119.483 21.5235 119.126C19.1751 118.952 16.8588 118.477 14.632 117.712C3.80761 114.327 -1.16952 105.945 1.784 95.0413C3.62174 88.2502 6.36333 81.6901 8.89879 75.1024C12.5631 65.5794 16.5057 56.163 20.147 46.6316C23.4445 38.0021 26.8648 29.4355 33.0573 22.4127C35.7596 19.416 38.737 16.6797 41.9506 14.2394C45.3635 11.5956 49.4802 10.8474 53.768 11.3325C58.4667 11.8641 61.6519 14.4514 63.2474 18.8344C63.9725 20.9565 64.5149 23.1366 64.8687 25.3511C65.8755 30.9786 66.7724 36.6263 67.814 42.8602ZM60.4863 69.6785L59.6456 69.3785C58.3368 70.2114 57.0359 71.0548 55.7173 71.8719C54.5635 72.5874 53.2928 72.8571 52.3883 71.6632C51.4196 70.3853 51.8954 69.0819 53.0184 68.0796C54.0189 67.1765 55.0709 66.3325 56.1689 65.5511C63.323 60.5157 70.6704 55.7291 77.6217 50.4259C84.0886 45.4916 90.5673 45.0748 97.2573 49.3062C102.083 52.3588 106.648 55.8347 111.249 59.2286C112.051 59.7726 112.616 60.6005 112.83 61.5451C113.045 62.4896 112.893 63.4803 112.405 64.3172C111.438 65.8881 109.329 66.3712 107.307 65.4055C106.367 64.9566 105.498 64.3605 104.131 63.5571C105.412 74.2459 106.506 84.368 108.624 94.3548C109.579 98.8606 112.27 101.413 116.763 102.132C125.011 103.451 133.313 103.438 141.616 102.98C144.527 102.822 147.421 102.428 150.268 101.803C153.462 101.097 154.281 98.9249 152.992 95.9648C152.001 93.7175 151.149 91.4118 150.44 89.0608C148.854 83.6893 147.672 78.1859 145.856 72.8971C141.378 59.8593 136.812 46.8461 131.915 33.9615C129.974 28.8559 127.207 24.0378 124.539 19.2433C122.845 16.1759 120.381 13.6023 117.389 11.776C115.661 10.7173 114.255 10.9419 112.834 12.2447C110.756 14.1707 109.372 16.7282 108.896 19.5209C107.58 26.9072 107.15 34.4242 107.614 41.9124C110.246 43.4174 112.816 44.8003 115.288 46.342C116.436 47.0334 117.456 47.9188 118.302 48.9589C118.773 49.5317 119.04 50.2455 119.06 50.9871C119.079 51.7287 118.851 52.4556 118.41 53.0526C117.532 54.341 116.154 54.5379 114.795 54.1999C113.717 53.9049 112.689 53.4527 111.741 52.8582C105.592 49.1558 99.586 45.1975 93.3042 41.7386C88.4335 39.0561 86.8524 35.3524 87.7378 30.0341C88.5294 25.2809 88.9619 20.4654 89.4581 15.6669C89.7646 12.6983 89.8945 9.71058 90.1243 6.44006L83.8083 6.73809C83.7381 7.67338 83.6488 8.32571 83.6456 8.97811C83.6035 17.3937 83.6232 25.81 83.4985 34.2242C83.4743 35.8585 83.3738 37.834 82.4806 39.039C80.7826 41.3739 78.7316 43.4305 76.4009 45.1352C70.2733 49.486 63.9353 53.5408 57.666 57.6914C56.9263 58.1817 56.1084 58.8407 55.3031 58.8729C54.2924 58.9156 52.7769 58.701 52.3496 58.0381C51.8107 57.194 51.8568 55.6963 52.1967 54.6593C52.4736 53.8159 53.4995 53.1642 54.2904 52.5531C57.1067 50.378 59.9644 48.2574 62.8228 46.1046C60.9712 38.6972 59.1881 31.5226 57.3753 24.3554C57.1167 23.3803 56.7846 22.4261 56.3821 21.501C56.0544 20.657 55.4799 19.9313 54.7334 19.4187C53.987 18.9062 53.1035 18.6305 52.198 18.6277C49.3754 18.4146 46.5759 19.2703 44.3548 21.0251C37.2375 26.4032 32.5539 33.5817 29.0812 41.6067C26.7676 46.9526 24.79 52.4441 22.6727 57.8746C18.1932 69.3608 13.6356 80.8198 9.30637 92.3635C8.2918 95.2146 7.65187 98.1852 7.40293 101.202C7.14787 103.345 7.61709 105.512 8.73582 107.358C9.85448 109.204 11.5583 110.623 13.5764 111.389C16.0367 112.472 18.6574 113.146 21.3351 113.385C29.6187 113.807 37.9272 114.129 46.2161 113.972C54.6048 113.813 57.71 111.307 58.5796 102.889C59.721 91.8712 59.8963 80.7535 60.4863 69.6785Z" fill="black"/>
</g>
<defs>
<clipPath id="clip0">
<rect width="161.459" height="120.11" fill="white" transform="translate(0.373657 0.0137939)"/>
</clipPath>
</defs>
</svg>

<svg xmlns="http://www.w3.org/2000/svg" width="162" height="121" fill="none" viewBox="0 0 162 121"><g clip-path="url(#a)"><path fill="#000" d="m67.814 42.86 8.94-5.815c.501-6.924 1.108-14.061 1.5-21.21.202-3.676.055-7.37 0-11.056-.026-1.707.66-2.945 2.313-3.223A87 87 0 0 1 90.557.29c2.121-.107 3.834 2.183 4.016 5.047.25 3.918.368 7.849.41 11.776.065 6.164.016 12.33.016 18.522l5.705 2.823c0-1.338.031-2.179-.005-3.016a64.5 64.5 0 0 1 1.789-18.706 16.7 16.7 0 0 1 6.218-9.36c3.917-3.003 7.637-3.21 11.88-.651a32.7 32.7 0 0 1 11.667 12.359 126 126 0 0 1 6.177 12.334c6.976 16.533 13.775 33.14 18.756 50.418 1.424 4.941 3.044 9.838 4.215 14.84 1.569 6.705-1.342 11.437-7.955 13.359a27.2 27.2 0 0 1-6.264 1.219c-10.319.454-20.661 1.004-30.903-.925-8.47-1.595-13.948-6.301-15.34-15.145-1.724-10.96-4.468-21.856-3.777-33.025.262-4.206-1.305-6.12-4.636-7.687-4.06-1.91-7.81-2.178-11.683.648-4.424 3.229-9.095 6.118-13.238 8.875.15 3.275.472 6.149.376 9.01q-.404 12.118-1.115 24.226a37.5 37.5 0 0 1-3.251 13.674c-1.816 3.925-4.62 6.6-8.906 7.499-2.63.551-5.295 1.338-7.942 1.334-8.415-.012-16.835-.255-25.244-.612a27.5 27.5 0 0 1-6.891-1.414C3.808 114.327-1.17 105.945 1.784 95.042c1.838-6.792 4.58-13.352 7.115-19.94 3.664-9.523 7.607-18.939 11.248-28.47 3.298-8.63 6.718-17.196 12.91-24.22a64.5 64.5 0 0 1 8.894-8.173c3.413-2.643 7.53-3.392 11.817-2.907 4.699.532 7.884 3.12 9.48 7.502a39.4 39.4 0 0 1 1.62 6.517c1.008 5.628 1.904 11.275 2.946 17.51M60.486 69.68l-.84-.3c-1.31.832-2.61 1.676-3.929 2.493-1.154.715-2.424.985-3.329-.209-.968-1.278-.493-2.581.63-3.583 1-.903 2.053-1.748 3.15-2.529 7.155-5.035 14.502-9.822 21.454-15.125 6.467-4.934 12.945-5.351 19.635-1.12 4.826 3.053 9.391 6.529 13.992 9.923a3.82 3.82 0 0 1 1.156 5.089c-.967 1.57-3.076 2.053-5.098 1.088-.94-.45-1.809-1.046-3.176-1.849 1.281 10.689 2.375 20.811 4.493 30.798.955 4.506 3.646 7.058 8.139 7.777 8.248 1.319 16.55 1.306 24.853.848a54 54 0 0 0 8.652-1.177c3.194-.706 4.013-2.878 2.724-5.838a60 60 0 0 1-2.552-6.904c-1.586-5.372-2.768-10.875-4.584-16.164-4.478-13.038-9.044-26.05-13.941-38.936-1.941-5.105-4.708-9.923-7.376-14.718a20.2 20.2 0 0 0-7.15-7.467c-1.728-1.059-3.134-.834-4.555.469a12.87 12.87 0 0 0-3.938 7.276 94.4 94.4 0 0 0-1.282 22.391c2.632 1.505 5.202 2.888 7.674 4.43a11.6 11.6 0 0 1 3.014 2.617 3.33 3.33 0 0 1 .108 4.094c-.878 1.288-2.256 1.485-3.615 1.147a11.4 11.4 0 0 1-3.054-1.342c-6.149-3.702-12.155-7.66-18.437-11.12-4.87-2.682-6.452-6.386-5.566-11.704.791-4.753 1.224-9.569 1.72-14.367.307-2.969.436-5.956.666-9.227l-6.316.298c-.07.935-.16 1.588-.162 2.24-.043 8.416-.023 16.832-.147 25.246-.025 1.635-.125 3.61-1.018 4.815a27.8 27.8 0 0 1-6.08 6.096c-6.128 4.351-12.466 8.406-18.735 12.556-.74.49-1.558 1.15-2.363 1.182-1.01.043-2.526-.172-2.953-.835-.54-.844-.493-2.342-.153-3.379.277-.843 1.302-1.495 2.093-2.106 2.817-2.175 5.674-4.296 8.533-6.448-1.852-7.408-3.635-14.582-5.448-21.75q-.388-1.465-.993-2.854a4.5 4.5 0 0 0-4.184-2.873 11.28 11.28 0 0 0-7.843 2.397c-7.117 5.378-11.801 12.557-15.274 20.582-2.313 5.346-4.291 10.837-6.408 16.268-4.48 11.486-9.037 22.945-13.367 34.489a35 35 0 0 0-1.903 8.838 9.67 9.67 0 0 0 6.173 10.187 24.7 24.7 0 0 0 7.76 1.996c8.283.422 16.591.744 24.88.587 8.389-.159 11.494-2.665 12.364-11.083 1.141-11.018 1.316-22.135 1.906-33.21"/></g><defs><clipPath id="a"><path fill="#fff" d="M.374.014h161.459v120.11H.373z"/></clipPath></defs></svg>
